_site/assets/img/parceiros/machado-meyer.svg

<svg width="346" height="241" viewBox="0 0 346 241" xmlns="http://www.w3.org/2000/svg"><title>machado-meyer</title><g fill="none" fill-rule="evenodd"><path d="M56.973.387L.518 240.137h252.54c26.585 0 40.122-15.766 44.218-33.581L345.994.388H56.973V.387z" fill="#FFED00"/><path fill="#000" fill-rule="nonzero" d="M96.896 108.118v30.012h-4.742v-18.518l-8.448 11.094h-1.611l-8.502-11.094v18.518H68.85v-30.012h1.656l12.388 16.503 12.393-16.503zm21.878 9.93c1.637 1.581 2.458 3.845 2.458 6.797v13.285h-4.381v-2.459c-1.641 1.968-3.982 2.953-7.022 2.953-2.299 0-4.147-.581-5.544-1.745-1.409-1.163-2.107-2.7-2.107-4.607 0-1.909.729-3.429 2.189-4.562 1.466-1.137 3.434-1.702 5.904-1.702h6.22v-1.431c0-1.52-.41-2.685-1.231-3.489-.817-.804-1.975-1.208-3.463-1.208-2.209 0-4.238 1.089-6.087 3.266l-2.728-2.773c2.208-3.131 5.294-4.696 9.262-4.696 2.711.001 4.886.79 6.53 2.371m-3.938 15.475c1.102-.982 1.655-2.221 1.655-3.711v-.403h-5.632c-2.597 0-3.894.894-3.894 2.684 0 .925.357 1.641 1.072 2.147.715.508 1.643.76 2.775.76 1.577 0 2.92-.492 4.024-1.477m28.605-16.484a10.5 10.5 0 0 1 3.825 3.737l-3.309 2.595c-1.582-2.238-3.549-3.354-5.905-3.354-1.998 0-3.645.684-4.943 2.057-1.295 1.372-1.947 3.056-1.947 5.053 0 2.058.652 3.767 1.947 5.124 1.298 1.354 2.945 2.034 4.943 2.034 2.327 0 4.292-1.104 5.905-3.311l3.309 2.549c-2.116 3.401-5.203 5.101-9.259 5.101-3.25 0-6.004-1.11-8.252-3.332-2.252-2.225-3.378-4.944-3.378-8.165 0-3.219 1.126-5.933 3.378-8.139 2.248-2.207 5.002-3.309 8.252-3.309 2.027-.001 3.838.453 5.434 1.36m26.01 1.052c1.463 1.611 2.195 3.713 2.195 6.309v13.73h-4.697v-13.06c0-1.521-.434-2.751-1.3-3.688-.864-.939-2.028-1.412-3.485-1.412-1.463 0-2.665.479-3.603 1.436-.937.952-1.409 2.177-1.409 3.665v13.061h-4.699v-33.547h4.699v13.733c1.584-1.759 3.696-2.639 6.355-2.639 2.505-.002 4.486.802 5.944 2.412m23.709-.043c1.641 1.581 2.46 3.845 2.46 6.797v13.285h-4.38v-2.459c-1.641 1.968-3.984 2.953-7.023 2.953-2.294 0-4.15-.581-5.547-1.745-1.399-1.163-2.102-2.7-2.102-4.607 0-1.909.727-3.429 2.187-4.562 1.466-1.137 3.433-1.702 5.909-1.702h6.215v-1.431c0-1.52-.41-2.685-1.229-3.489-.822-.804-1.973-1.208-3.464-1.208-2.211 0-4.237 1.089-6.084 3.266l-2.732-2.773c2.209-3.131 5.294-4.696 9.261-4.696 2.714.001 4.889.79 6.529 2.371m-3.931 15.475c1.104-.982 1.65-2.221 1.65-3.711v-.403h-5.635c-2.59 0-3.892.894-3.892 2.684 0 .925.359 1.641 1.072 2.147.722.508 1.641.76 2.774.76 1.585 0 2.927-.492 4.031-1.477m34.35-28.94v33.547h-4.382V135c-1.702 2.417-4.267 3.624-7.699 3.624-3.099 0-5.662-1.088-7.691-3.266-2.023-2.177-3.039-4.904-3.039-8.187 0-3.279 1.016-6.015 3.039-8.206 2.029-2.194 4.593-3.287 7.691-3.287 3.166 0 5.611 1.056 7.339 3.174v-14.269h4.742zm-6.6 27.935c1.303-1.208 1.946-2.991 1.946-5.347 0-2.326-.655-4.107-1.966-5.345-1.315-1.236-2.861-1.856-4.651-1.856-1.938 0-3.551.672-4.829 2.016-1.281 1.338-1.922 3.054-1.922 5.141 0 2.119.641 3.848 1.922 5.189 1.278 1.343 2.891 2.014 4.829 2.014 1.816 0 3.376-.606 4.671-1.812zm31.85-13.531c2.28 2.208 3.424 4.919 3.424 8.139 0 3.221-1.144 5.941-3.424 8.165-2.279 2.222-5.028 3.332-8.253 3.332-3.248-.03-5.988-1.148-8.227-3.354-2.239-2.208-3.354-4.922-3.354-8.143 0-3.22 1.114-5.932 3.354-8.139 2.238-2.208 4.979-3.31 8.227-3.31 3.225 0 5.974 1.102 8.253 3.31m-13.11 3.062c-1.29 1.359-1.937 3.066-1.937 5.122 0 2.028.64 3.722 1.923 5.079 1.283 1.354 2.902 2.034 4.871 2.034 1.939 0 3.563-.681 4.88-2.034 1.307-1.357 1.965-3.051 1.965-5.079 0-2.056-.646-3.763-1.943-5.122-1.298-1.356-2.917-2.049-4.855-2.08-1.967.031-3.602.724-4.904 2.08"/><path fill="#626369" fill-rule="nonzero" d="M82.282 162.414l-12.108-17.369h-1.325v30.531h2.887v-23.414l9.999 14.196h1.184l9.952-14.194v23.412h2.889v-30.531h-1.324zm30.777-9.452c-3.104 0-5.777 1.134-7.939 3.372-2.161 2.236-3.256 4.989-3.256 8.178 0 3.223 1.119 5.978 3.326 8.187 2.203 2.204 4.945 3.325 8.136 3.325 3.561 0 6.55-1.391 8.892-4.128l.168-.191-1.823-1.881-.201.232c-1.873 2.193-4.226 3.303-6.989 3.303-2.386 0-4.405-.786-5.999-2.337-1.529-1.488-2.39-3.416-2.558-5.736h17.946l.053-.21c.125-.503.189-1.229.189-2.217 0-2.93-.971-5.338-2.887-7.158-1.905-1.818-4.283-2.739-7.058-2.739m-.09 2.617c2.033 0 3.775.684 5.172 2.026 1.34 1.283 2.006 3 1.979 5.106h-15.191c.334-2.021 1.222-3.712 2.642-5.037 1.489-1.389 3.304-2.095 5.398-2.095m23.704 15.959l-7.817-18.127h-3.076l9.382 21.436-1.335 3.063c-1.034 2.387-2.593 3.544-4.754 3.544-.838 0-1.739-.1-2.668-.306l-.34-.072v2.53l.209.055c1.001.274 2.046.415 3.112.415 3.177 0 5.542-1.729 7.01-5.139l10.952-25.525h-3.03l-7.645 18.126zm24.204-18.576c-3.109 0-5.781 1.134-7.941 3.372-2.159 2.236-3.25 4.989-3.25 8.178 0 3.226 1.118 5.978 3.324 8.187 2.204 2.204 4.943 3.325 8.134 3.325 3.558 0 6.553-1.391 8.892-4.128l.168-.191-1.823-1.881-.202.232c-1.878 2.193-4.225 3.303-6.99 3.303-2.384 0-4.403-.786-5.999-2.337-1.529-1.488-2.386-3.416-2.559-5.736h17.949l.055-.21c.123-.501.185-1.227.185-2.217 0-2.927-.969-5.336-2.884-7.158-1.908-1.818-4.285-2.739-7.059-2.739m-.09 2.617c2.035 0 3.775.684 5.172 2.026 1.341 1.283 2.008 3 1.979 5.106h-15.191c.331-2.021 1.22-3.712 2.644-5.037 1.49-1.389 3.305-2.095 5.396-2.095m27.137-2.168c-1.207-.136-1.365-.136-1.416-.136-2.923 0-5.233 1.063-6.874 3.158v-3.022h-2.711v22.165h2.798v-12.983c0-2.021.715-3.652 2.119-4.842 1.413-1.202 3.075-1.811 4.936-1.811h1.402v-2.5l-.254-.029zM76.397 201.358h-5.273l-.93 2.188h-1.345l4.682-10.985h.479l4.681 10.985H77.33l-.933-2.188zm-2.631-6.456l-2.164 5.31h4.326l-2.162-5.31zm16.709-.662c1.057 1 1.587 2.299 1.587 3.889 0 1.581-.53 2.882-1.587 3.896-1.06 1.017-2.489 1.522-4.285 1.522h-3.213v-10.811h3.213c1.796.001 3.225.507 4.285 1.504zm-6.221-.354v8.516h1.917c1.412 0 2.517-.403 3.34-1.205.821-.798 1.226-1.82 1.226-3.068 0-1.262-.403-2.288-1.215-3.071-.815-.779-1.93-1.171-3.351-1.171h-1.917v-.001zm20.908-1.149l-4.682 10.992h-.474l-4.686-10.992h1.407l3.526 8.45 3.502-8.45zm12.831 1.437c1.093 1.074 1.641 2.402 1.641 3.973 0 1.571-.548 2.897-1.641 3.972-1.087 1.071-2.418 1.61-3.976 1.61-1.572 0-2.898-.539-3.982-1.61-1.08-1.074-1.618-2.401-1.618-3.972 0-1.571.542-2.898 1.63-3.973 1.083-1.074 2.409-1.614 3.97-1.614 1.558 0 2.889.54 3.976 1.614m-7.03.822c-.817.831-1.223 1.881-1.223 3.133 0 1.269.406 2.323 1.223 3.162.812.845 1.836 1.262 3.067 1.262 1.226 0 2.245-.417 3.056-1.262.814-.839 1.222-1.894 1.222-3.162 0-1.242-.408-2.289-1.222-3.126-.811-.844-1.83-1.262-3.056-1.262-1.231 0-2.255.414-3.067 1.255m20.663-1.853a5.228 5.228 0 0 1 1.888 1.63l-.964.752c-.866-1.191-2.011-1.784-3.442-1.784-1.243 0-2.269.415-3.082 1.254-.801.831-1.209 1.882-1.209 3.134 0 1.27.413 2.325 1.24 3.179.819.851 1.86 1.277 3.122 1.277.783 0 1.485-.176 2.111-.526a4.11 4.11 0 0 0 1.487-1.405v-1.459h-3.684v-1.147h4.96v2.886a5.362 5.362 0 0 1-2.036 2.032c-.879.512-1.849.766-2.909.766-1.583 0-2.91-.539-3.995-1.611-1.08-1.075-1.622-2.402-1.622-3.971 0-1.571.549-2.899 1.633-3.974 1.086-1.074 2.412-1.613 3.984-1.613.917-.002 1.76.189 2.518.58m13.476 8.215h-5.27l-.94 2.188h-1.335l4.684-10.985h.472l4.684 10.985h-1.362l-.933-2.188zm-2.634-6.456l-2.162 5.31h4.325l-2.163-5.31zm16.714-.662c1.054 1 1.587 2.299 1.587 3.889 0 1.581-.533 2.882-1.587 3.896-1.058 1.017-2.488 1.522-4.292 1.522h-3.212v-10.811h3.212c1.804.001 3.234.507 4.292 1.504zm-6.225-.354v8.516h1.921c1.403 0 2.52-.403 3.335-1.205.818-.798 1.231-1.82 1.231-3.068 0-1.262-.408-2.288-1.219-3.071-.815-.779-1.928-1.171-3.347-1.171h-1.921v-.001zm21.249.288c1.093 1.074 1.641 2.402 1.641 3.973 0 1.571-.548 2.897-1.641 3.972-1.089 1.071-2.417 1.61-3.977 1.61-1.573 0-2.898-.539-3.979-1.61-1.089-1.074-1.62-2.401-1.62-3.972 0-1.571.541-2.898 1.63-3.973 1.085-1.074 2.409-1.614 3.969-1.614 1.561 0 2.888.54 3.977 1.614m-7.028.822c-.818.831-1.223 1.881-1.223 3.133 0 1.269.405 2.323 1.223 3.162.81.845 1.836 1.262 3.07 1.262 1.222 0 2.24-.417 3.054-1.262.812-.839 1.22-1.894 1.22-3.162 0-1.242-.408-2.289-1.22-3.126-.814-.844-1.832-1.262-3.054-1.262-1.234 0-2.26.414-3.07 1.255m18.331-1.923a3.884 3.884 0 0 1 1.416 1.321l-.931.704c-.6-.906-1.421-1.357-2.472-1.357-.532 0-.989.134-1.364.408-.369.274-.549.666-.549 1.166 0 .243.032.444.113.618.074.179.212.344.399.493.192.15.363.27.515.352.151.084.389.198.705.354l1.197.573c.854.406 1.484.833 1.899 1.292.41.46.622 1.034.622 1.722 0 .892-.33 1.618-.988 2.176-.655.56-1.487.835-2.499.835-.844 0-1.61-.205-2.305-.623a4.714 4.714 0 0 1-1.675-1.702l.95-.704c.805 1.232 1.81 1.853 3.007 1.853.648 0 1.176-.164 1.578-.495.398-.323.605-.76.605-1.309 0-.462-.143-.813-.418-1.063-.279-.249-.738-.529-1.384-.835l-1.216-.572c-.762-.37-1.359-.773-1.788-1.214-.437-.439-.651-1-.651-1.685 0-.845.318-1.521.951-2.041.634-.521 1.402-.779 2.308-.779a3.878 3.878 0 0 1 1.975.512"/></g></svg>

<?xml version="1.0" encoding="UTF-8"?>
<svg width="346px" height="241px" viewBox="0 0 346 241" version="1.1" xmlns="http://www.w3.org/2000/svg" xmlns:xlink="http://www.w3.org/1999/xlink">
    <!-- Generator: Sketch 47.1 (45422) - http://www.bohemiancoding.com/sketch -->
    <title>machado-meyer</title>
    <desc>Created with Sketch.</desc>
    <defs></defs>
    <g id="Page-1" stroke="none" stroke-width="1" fill="none" fill-rule="evenodd">
        <g id="Artboard" transform="translate(-4253.000000, -1027.000000)">
            <g id="machado-meyer" transform="translate(4253.000000, 1027.000000)">
                <path d="M56.973,0.387 L0.518,240.137 L253.058,240.137 C279.643,240.137 293.18,224.371 297.276,206.556 L345.994,0.388 L56.973,0.388 L56.973,0.387 Z" id="Shape" fill="#FFED00"></path>
                <polygon id="Shape" fill="#000000" fill-rule="nonzero" points="96.896 108.118 96.896 138.13 92.154 138.13 92.154 119.612 83.706 130.706 82.095 130.706 73.593 119.612 73.593 138.13 68.85 138.13 68.85 108.118 70.506 108.118 82.894 124.621 95.287 108.118"></polygon>
                <path d="M118.774,118.048 C120.411,119.629 121.232,121.893 121.232,124.845 L121.232,138.13 L116.851,138.13 L116.851,135.671 C115.21,137.639 112.869,138.624 109.829,138.624 C107.53,138.624 105.682,138.043 104.285,136.879 C102.876,135.716 102.178,134.179 102.178,132.272 C102.178,130.363 102.907,128.843 104.367,127.71 C105.833,126.573 107.801,126.008 110.271,126.008 L116.491,126.008 L116.491,124.577 C116.491,123.057 116.081,121.892 115.26,121.088 C114.443,120.284 113.285,119.88 111.797,119.88 C109.588,119.88 107.559,120.969 105.71,123.146 L102.982,120.373 C105.19,117.242 108.276,115.677 112.244,115.677 C114.955,115.678 117.13,116.467 118.774,118.048 M114.836,133.523 C115.938,132.541 116.491,131.302 116.491,129.812 L116.491,129.409 L110.859,129.409 C108.262,129.409 106.965,130.303 106.965,132.093 C106.965,133.018 107.322,133.734 108.037,134.24 C108.752,134.748 109.68,135 110.812,135 C112.389,135 113.732,134.508 114.836,133.523" id="Shape" fill="#000000" fill-rule="nonzero"></path>
                <path d="M143.441,117.039 C145.037,117.952 146.308,119.196 147.266,120.776 L143.957,123.371 C142.375,121.133 140.408,120.017 138.052,120.017 C136.054,120.017 134.407,120.701 133.109,122.074 C131.814,123.446 131.162,125.13 131.162,127.127 C131.162,129.185 131.814,130.894 133.109,132.251 C134.407,133.605 136.054,134.285 138.052,134.285 C140.379,134.285 142.344,133.181 143.957,130.974 L147.266,133.523 C145.15,136.924 142.063,138.624 138.007,138.624 C134.757,138.624 132.003,137.514 129.755,135.292 C127.503,133.067 126.377,130.348 126.377,127.127 C126.377,123.908 127.503,121.194 129.755,118.988 C132.003,116.781 134.757,115.679 138.007,115.679 C140.034,115.678 141.845,116.132 143.441,117.039" id="Shape" fill="#000000" fill-rule="nonzero"></path>
                <path d="M169.451,118.091 C170.914,119.702 171.646,121.804 171.646,124.4 L171.646,138.13 L166.949,138.13 L166.949,125.07 C166.949,123.549 166.515,122.319 165.649,121.382 C164.785,120.443 163.621,119.97 162.164,119.97 C160.701,119.97 159.499,120.449 158.561,121.406 C157.624,122.358 157.152,123.583 157.152,125.071 L157.152,138.132 L152.453,138.132 L152.453,104.585 L157.152,104.585 L157.152,118.318 C158.736,116.559 160.848,115.679 163.507,115.679 C166.012,115.677 167.993,116.481 169.451,118.091" id="Shape" fill="#000000" fill-rule="nonzero"></path>
                <path d="M193.16,118.048 C194.801,119.629 195.62,121.893 195.62,124.845 L195.62,138.13 L191.24,138.13 L191.24,135.671 C189.599,137.639 187.256,138.624 184.217,138.624 C181.923,138.624 180.067,138.043 178.67,136.879 C177.271,135.716 176.568,134.179 176.568,132.272 C176.568,130.363 177.295,128.843 178.755,127.71 C180.221,126.573 182.188,126.008 184.664,126.008 L190.879,126.008 L190.879,124.577 C190.879,123.057 190.469,121.892 189.65,121.088 C188.828,120.284 187.677,119.88 186.186,119.88 C183.975,119.88 181.949,120.969 180.102,123.146 L177.37,120.373 C179.579,117.242 182.664,115.677 186.631,115.677 C189.345,115.678 191.52,116.467 193.16,118.048 M189.229,133.523 C190.333,132.541 190.879,131.302 190.879,129.812 L190.879,129.409 L185.244,129.409 C182.654,129.409 181.352,130.303 181.352,132.093 C181.352,133.018 181.711,133.734 182.424,134.24 C183.146,134.748 184.065,135 185.198,135 C186.783,135 188.125,134.508 189.229,133.523" id="Shape" fill="#000000" fill-rule="nonzero"></path>
                <path d="M223.579,104.583 L223.579,138.13 L219.197,138.13 L219.197,135 C217.495,137.417 214.93,138.624 211.498,138.624 C208.399,138.624 205.836,137.536 203.807,135.358 C201.784,133.181 200.768,130.454 200.768,127.171 C200.768,123.892 201.784,121.156 203.807,118.965 C205.836,116.771 208.4,115.678 211.498,115.678 C214.664,115.678 217.109,116.734 218.837,118.852 L218.837,104.583 L223.579,104.583 L223.579,104.583 Z M216.979,132.518 C218.282,131.31 218.925,129.527 218.925,127.171 C218.925,124.845 218.27,123.064 216.959,121.826 C215.644,120.59 214.098,119.97 212.308,119.97 C210.37,119.97 208.757,120.642 207.479,121.986 C206.198,123.324 205.557,125.04 205.557,127.127 C205.557,129.246 206.198,130.975 207.479,132.316 C208.757,133.659 210.37,134.33 212.308,134.33 C214.124,134.33 215.684,133.724 216.979,132.518 L216.979,132.518 Z" id="Shape" fill="#000000" fill-rule="nonzero"></path>
                <path d="M248.829,118.987 C251.109,121.195 252.253,123.906 252.253,127.126 C252.253,130.347 251.109,133.067 248.829,135.291 C246.55,137.513 243.801,138.623 240.576,138.623 C237.328,138.593 234.588,137.475 232.349,135.269 C230.11,133.061 228.995,130.347 228.995,127.126 C228.995,123.906 230.109,121.194 232.349,118.987 C234.587,116.779 237.328,115.677 240.576,115.677 C243.801,115.677 246.55,116.779 248.829,118.987 M235.719,122.049 C234.429,123.408 233.782,125.115 233.782,127.171 C233.782,129.199 234.422,130.893 235.705,132.25 C236.988,133.604 238.607,134.284 240.576,134.284 C242.515,134.284 244.139,133.603 245.456,132.25 C246.763,130.893 247.421,129.199 247.421,127.171 C247.421,125.115 246.775,123.408 245.478,122.049 C244.18,120.693 242.561,120 240.623,119.969 C238.656,120 237.021,120.693 235.719,122.049" id="Shape" fill="#000000" fill-rule="nonzero"></path>
                <polygon id="Shape" fill="#626369" fill-rule="nonzero" points="82.282 162.414 70.174 145.045 68.849 145.045 68.849 175.576 71.736 175.576 71.736 152.162 81.735 166.358 82.919 166.358 92.871 152.164 92.871 175.576 95.76 175.576 95.76 145.045 94.436 145.045"></polygon>
                <path d="M113.059,152.962 C109.955,152.962 107.282,154.096 105.12,156.334 C102.959,158.57 101.864,161.323 101.864,164.512 C101.864,167.735 102.983,170.49 105.19,172.699 C107.393,174.903 110.135,176.024 113.326,176.024 C116.887,176.024 119.876,174.633 122.218,171.896 L122.386,171.705 L120.563,169.824 L120.362,170.056 C118.489,172.249 116.136,173.359 113.373,173.359 C110.987,173.359 108.968,172.573 107.374,171.022 C105.845,169.534 104.984,167.606 104.816,165.286 L122.762,165.286 L122.815,165.076 C122.94,164.573 123.004,163.847 123.004,162.859 C123.004,159.929 122.033,157.521 120.117,155.701 C118.212,153.883 115.834,152.962 113.059,152.962 M112.969,155.579 C115.002,155.579 116.744,156.263 118.141,157.605 C119.481,158.888 120.147,160.605 120.12,162.711 L104.929,162.711 C105.263,160.69 106.151,158.999 107.571,157.674 C109.06,156.285 110.875,155.579 112.969,155.579" id="Shape" fill="#626369" fill-rule="nonzero"></path>
                <path d="M136.673,171.538 L128.856,153.411 L125.78,153.411 L135.162,174.847 L133.827,177.91 C132.793,180.297 131.234,181.454 129.073,181.454 C128.235,181.454 127.334,181.354 126.405,181.148 L126.065,181.076 L126.065,183.606 L126.274,183.661 C127.275,183.935 128.32,184.076 129.386,184.076 C132.563,184.076 134.928,182.347 136.396,178.937 L147.348,153.412 L144.318,153.412 L136.673,171.538 Z" id="Shape" fill="#626369" fill-rule="nonzero"></path>
                <path d="M160.877,152.962 C157.768,152.962 155.096,154.096 152.936,156.334 C150.777,158.57 149.686,161.323 149.686,164.512 C149.686,167.738 150.804,170.49 153.01,172.699 C155.214,174.903 157.953,176.024 161.144,176.024 C164.702,176.024 167.697,174.633 170.036,171.896 L170.204,171.705 L168.381,169.824 L168.179,170.056 C166.301,172.249 163.954,173.359 161.189,173.359 C158.805,173.359 156.786,172.573 155.19,171.022 C153.661,169.534 152.804,167.606 152.631,165.286 L170.58,165.286 L170.635,165.076 C170.758,164.575 170.82,163.849 170.82,162.859 C170.82,159.932 169.851,157.523 167.936,155.701 C166.028,153.883 163.651,152.962 160.877,152.962 M160.787,155.579 C162.822,155.579 164.562,156.263 165.959,157.605 C167.3,158.888 167.967,160.605 167.938,162.711 L152.747,162.711 C153.078,160.69 153.967,158.999 155.391,157.674 C156.881,156.285 158.696,155.579 160.787,155.579" id="Shape" fill="#626369" fill-rule="nonzero"></path>
                <path d="M187.924,153.411 C186.717,153.275 186.559,153.275 186.508,153.275 C183.585,153.275 181.275,154.338 179.634,156.433 L179.634,153.411 L176.923,153.411 L176.923,175.576 L179.721,175.576 L179.721,162.593 C179.721,160.572 180.436,158.941 181.84,157.751 C183.253,156.549 184.915,155.94 186.776,155.94 L188.178,155.94 L188.178,153.44 L187.924,153.411 Z" id="Shape" fill="#626369" fill-rule="nonzero"></path>
                <path d="M76.397,201.358 L71.124,201.358 L70.194,203.546 L68.849,203.546 L73.531,192.561 L74.01,192.561 L78.691,203.546 L77.33,203.546 L76.397,201.358 Z M73.766,194.902 L71.602,200.212 L75.928,200.212 L73.766,194.902 Z" id="Shape" fill="#626369" fill-rule="nonzero"></path>
                <path d="M90.475,194.24 C91.532,195.24 92.062,196.539 92.062,198.129 C92.062,199.71 91.532,201.011 90.475,202.025 C89.415,203.042 87.986,203.547 86.19,203.547 L82.977,203.547 L82.977,192.736 L86.19,192.736 C87.986,192.737 89.415,193.243 90.475,194.24 L90.475,194.24 Z M84.254,193.886 L84.254,202.402 L86.171,202.402 C87.583,202.402 88.688,201.999 89.511,201.197 C90.332,200.399 90.737,199.377 90.737,198.129 C90.737,196.867 90.334,195.841 89.522,195.058 C88.707,194.279 87.592,193.887 86.171,193.887 L84.254,193.887 L84.254,193.886 Z" id="Shape" fill="#626369" fill-rule="nonzero"></path>
                <polygon id="Shape" fill="#626369" fill-rule="nonzero" points="105.162 192.737 100.48 203.729 100.006 203.729 95.32 192.737 96.727 192.737 100.253 201.187 103.755 192.737"></polygon>
                <path d="M117.993,194.174 C119.086,195.248 119.634,196.576 119.634,198.147 C119.634,199.718 119.086,201.044 117.993,202.119 C116.906,203.19 115.575,203.729 114.017,203.729 C112.445,203.729 111.119,203.19 110.035,202.119 C108.955,201.045 108.417,199.718 108.417,198.147 C108.417,196.576 108.959,195.249 110.047,194.174 C111.13,193.1 112.456,192.56 114.017,192.56 C115.575,192.56 116.906,193.1 117.993,194.174 M110.963,194.996 C110.146,195.827 109.74,196.877 109.74,198.129 C109.74,199.398 110.146,200.452 110.963,201.291 C111.775,202.136 112.799,202.553 114.03,202.553 C115.256,202.553 116.275,202.136 117.086,201.291 C117.9,200.452 118.308,199.397 118.308,198.129 C118.308,196.887 117.9,195.84 117.086,195.003 C116.275,194.159 115.256,193.741 114.03,193.741 C112.799,193.741 111.775,194.155 110.963,194.996" id="Shape" fill="#626369" fill-rule="nonzero"></path>
                <path d="M131.626,193.143 C132.38,193.527 133.011,194.074 133.514,194.773 L132.55,195.525 C131.684,194.334 130.539,193.741 129.108,193.741 C127.865,193.741 126.839,194.156 126.026,194.995 C125.225,195.826 124.817,196.877 124.817,198.129 C124.817,199.399 125.23,200.454 126.057,201.308 C126.876,202.159 127.917,202.585 129.179,202.585 C129.962,202.585 130.664,202.409 131.29,202.059 C131.909,201.713 132.406,201.24 132.777,200.654 L132.777,199.195 L129.093,199.195 L129.093,198.048 L134.053,198.048 L134.053,200.934 C133.573,201.78 132.894,202.464 132.017,202.966 C131.138,203.478 130.168,203.732 129.108,203.732 C127.525,203.732 126.198,203.193 125.113,202.121 C124.033,201.046 123.491,199.719 123.491,198.15 C123.491,196.579 124.04,195.251 125.124,194.176 C126.21,193.102 127.536,192.563 129.108,192.563 C130.025,192.561 130.868,192.752 131.626,193.143" id="Shape" fill="#626369" fill-rule="nonzero"></path>
                <path d="M145.102,201.358 L139.832,201.358 L138.892,203.546 L137.557,203.546 L142.241,192.561 L142.713,192.561 L147.397,203.546 L146.035,203.546 L145.102,201.358 Z M142.468,194.902 L140.306,200.212 L144.631,200.212 L142.468,194.902 Z" id="Shape" fill="#626369" fill-rule="nonzero"></path>
                <path d="M159.182,194.24 C160.236,195.24 160.769,196.539 160.769,198.129 C160.769,199.71 160.236,201.011 159.182,202.025 C158.124,203.042 156.694,203.547 154.89,203.547 L151.678,203.547 L151.678,192.736 L154.89,192.736 C156.694,192.737 158.124,193.243 159.182,194.24 L159.182,194.24 Z M152.957,193.886 L152.957,202.402 L154.878,202.402 C156.281,202.402 157.398,201.999 158.213,201.197 C159.031,200.399 159.444,199.377 159.444,198.129 C159.444,196.867 159.036,195.841 158.225,195.058 C157.41,194.279 156.297,193.887 154.878,193.887 L152.957,193.887 L152.957,193.886 Z" id="Shape" fill="#626369" fill-rule="nonzero"></path>
                <path d="M174.206,194.174 C175.299,195.248 175.847,196.576 175.847,198.147 C175.847,199.718 175.299,201.044 174.206,202.119 C173.117,203.19 171.789,203.729 170.229,203.729 C168.656,203.729 167.331,203.19 166.25,202.119 C165.161,201.045 164.63,199.718 164.63,198.147 C164.63,196.576 165.171,195.249 166.26,194.174 C167.345,193.1 168.669,192.56 170.229,192.56 C171.79,192.56 173.117,193.1 174.206,194.174 M167.178,194.996 C166.36,195.827 165.955,196.877 165.955,198.129 C165.955,199.398 166.36,200.452 167.178,201.291 C167.988,202.136 169.014,202.553 170.248,202.553 C171.47,202.553 172.488,202.136 173.302,201.291 C174.114,200.452 174.522,199.397 174.522,198.129 C174.522,196.887 174.114,195.84 173.302,195.003 C172.488,194.159 171.47,193.741 170.248,193.741 C169.014,193.741 167.988,194.155 167.178,194.996" id="Shape" fill="#626369" fill-rule="nonzero"></path>
                <path d="M185.509,193.073 C186.108,193.405 186.578,193.85 186.925,194.394 L185.994,195.098 C185.394,194.192 184.573,193.741 183.522,193.741 C182.99,193.741 182.533,193.875 182.158,194.149 C181.789,194.423 181.609,194.815 181.609,195.315 C181.609,195.558 181.641,195.759 181.722,195.933 C181.796,196.112 181.934,196.277 182.121,196.426 C182.313,196.576 182.484,196.696 182.636,196.778 C182.787,196.862 183.025,196.976 183.341,197.132 L184.538,197.705 C185.392,198.111 186.022,198.538 186.437,198.997 C186.847,199.457 187.059,200.031 187.059,200.719 C187.059,201.611 186.729,202.337 186.071,202.895 C185.416,203.455 184.584,203.73 183.572,203.73 C182.728,203.73 181.962,203.525 181.267,203.107 C180.575,202.694 180.015,202.129 179.592,201.405 L180.542,200.701 C181.347,201.933 182.352,202.554 183.549,202.554 C184.197,202.554 184.725,202.39 185.127,202.059 C185.525,201.736 185.732,201.299 185.732,200.75 C185.732,200.288 185.589,199.937 185.314,199.687 C185.035,199.438 184.576,199.158 183.93,198.852 L182.714,198.28 C181.952,197.91 181.355,197.507 180.926,197.066 C180.489,196.627 180.275,196.066 180.275,195.381 C180.275,194.536 180.593,193.86 181.226,193.34 C181.86,192.819 182.628,192.561 183.534,192.561 C184.259,192.56 184.916,192.732 185.509,193.073" id="Shape" fill="#626369" fill-rule="nonzero"></path>
            </g>
        </g>
    </g>
</svg>
